!!!OTL: Die Flucht.
!!!OTL-incipit: JETZT GEH ICH ANS BRUENNELE
!!!ARE: Europa, Mitteleuropa, Deutschland, Baden
!!!SCT: Z1081
!!!TXL: @@DE
!!!YEM: Copyright 1995, estate of Helmut Schaffrath.
**kern	**text
*ICvox	*
*M3/8	*
*k[f#c#g#]	*
*A:	*
!LO:TX:a:t=Jn der Nähe von Baden.	!
{8e	Jetʒt
=1	=1
8.a	geh
16b/	ich
8cc#	an's
=2	=2
8.a	Brünne-
16g#	.
8a}	-le,
=3	=3
{16bL	trink
16cc#J	.
8dd	a-
8cc#	-ber
=4	=4
4b/}	nicht,
{8e	jetʒt
=5	=5
8.a	geh
16b/	ich
8cc#	an's
=6	=6
8.a	Brünne-
16g#	.
8a}	-le,
=7	=7
{16bL	trink
16cc#J	.
8dd	a-
8cc#	-ber
=8	=8
4.b}	nicht,
=9	=9
{16b	da
16cc#	ſuch'
16ddL	ich
16ff#J	.
16ee	mei
16dd	herʒ-
=10	=10
16ddL	-tau-
16cc#J	.
16cc#	-ſig-
16b	-ſte
8cc#}	Schatʒ,
=11	=11
{16.b	find'
32dd	ihn
8cc#	a-
8b	-ber
=12	=12
4a}	nicht!
==	==
!!!AGN: Romanze, Ballade, Abschieds - Lied
!!!ONB: ESAC (Essen Associative Code) Database: ZUCCAL
!!!AMT: simple triple
!!!AIN: vox
!!!EED: Helmut Schaffrath
!!!EEV: 1.0
!!!GTL: II. Gau- Leuschen.
!!!URL-scan: https://www.digitale-sammlungen.de/de/view/bsb11160573?page=176
!!!ENC: Anna Maria Matuszewska
!!!EEV: 2025/02/04
*-	*-
